public/img/clients/bfs.svg

<svg width="200" height="100" viewBox="0 0 200 100" fill="none" xmlns="http://www.w3.org/2000/svg">
<path fill-rule="evenodd" clip-rule="evenodd" d="M132 18V80.6C132 81.4 131.4 82 130.6 82H69.4C68.6 82 68 81.4 68 80.6V18H132ZM89.0665 59.9592V51.6592H85.0665V66.1592C85.0665 70.5592 88.3665 74.1592 92.9665 74.1592C97.6665 74.1592 100.867 70.5592 100.867 66.1592C100.867 61.7592 97.5665 58.1592 93.5665 58.1592C91.7665 58.1592 90.2665 58.7592 89.0665 59.9592ZM89.0665 66.1592C89.0665 63.7592 90.7665 61.7592 92.9665 61.7592C95.1665 61.7592 96.8665 63.6592 96.8665 66.1592C96.8665 68.5592 95.1665 70.4592 92.9665 70.4592C90.8665 70.4592 89.0665 68.5592 89.0665 66.1592ZM107.166 58.5592H109.966V62.0592H107.166V73.8592H103.266V58.7592C103.266 54.6592 105.666 51.6592 110.066 52.1592V55.8592C108.266 55.6592 107.266 56.4592 107.166 58.5592ZM125.566 68.9592C125.566 71.9592 122.766 74.1592 118.866 74.1592C114.966 74.1592 112.066 72.0592 111.566 68.7592H115.566C116.066 70.0592 117.666 70.5592 118.866 70.5592C120.466 70.5592 121.666 70.0592 121.666 69.1592C121.666 68.2592 121.166 67.9592 118.466 67.5592C115.766 67.1592 112.066 66.3592 112.066 62.9592C112.066 60.5592 114.166 58.0592 118.666 58.0592C122.166 58.0592 124.766 59.9592 125.266 62.8592H121.066C120.866 62.1592 119.966 61.5592 118.466 61.5592C116.666 61.5592 115.866 62.2592 115.866 62.7592C115.866 63.5592 116.966 63.8592 118.866 64.1592C122.766 64.8592 125.566 65.6592 125.566 68.9592Z" fill="black"/>
</svg>

<svg xmlns="http://www.w3.org/2000/svg" focusable="false" role="img" viewBox="0 0 200 100" fill="currentColor">
  <path fill-rule="evenodd" d="M132 18v62.6c0 .8-.6 1.4-1.4 1.4H69.4c-.8 0-1.4-.6-1.4-1.4V18h64zM89.067 59.96v-8.3h-4v14.5c0 4.4 3.3 8 7.9 8 4.7 0 7.9-3.6 7.9-8s-3.3-8-7.3-8c-1.8 0-3.3.6-4.5 1.8zm0 6.2c0-2.4 1.7-4.4 3.9-4.4s3.9 1.9 3.9 4.4c0 2.4-1.7 4.3-3.9 4.3-2.1 0-3.9-1.9-3.9-4.3zm18.099-7.6h2.8v3.5h-2.8v11.8h-3.9v-15.1c0-4.1 2.4-7.1 6.8-6.6v3.7c-1.8-.2-2.8.6-2.9 2.7zm18.4 10.4c0 3-2.8 5.2-6.7 5.2-3.9 0-6.8-2.1-7.3-5.4h4c.5 1.3 2.1 1.8 3.3 1.8 1.6 0 2.8-.5 2.8-1.4 0-.9-.5-1.2-3.2-1.6-2.7-.4-6.4-1.2-6.4-4.6 0-2.4 2.1-4.9 6.6-4.9 3.5 0 6.1 1.9 6.6 4.8h-4.2c-.2-.7-1.1-1.3-2.6-1.3-1.8 0-2.6.7-2.6 1.2 0 .8 1.1 1.1 3 1.4 3.9.7 6.7 1.5 6.7 4.8z" clip-rule="evenodd"/>
</svg>
